X: 41230
T: Trounsdell's Cross
R: jig
M: 6/8
K: Gmajor
|:DED BDG|A/B/d ed BG|DEE cBA|edB gdB|DED BDG|
A/B/d ed BG|1 (cBc) edc|BGF G3:|2 c z c edc|BGF G2||
|:c|{A}BBB dcB|gdB DGB|{B}cBc BBB|A B/c/d gdc|{A}BBB ddd|
gdB DGB|1 (cBc) edc|BGF G2:|2 c z c gdc|BGF G3||

